src/svg/move.svg

<?xml version="1.0" encoding="UTF-8" standalone="no"?>
<svg width="35px" height="35px" viewBox="0 0 35 35" version="1.1" xmlns="http://www.w3.org/2000/svg" xmlns:xlink="http://www.w3.org/1999/xlink">
    <defs></defs>
    <g id="Page-1" stroke="none" stroke-width="1" fill="none" fill-rule="evenodd">
        <g id="move">
            <g id="bg-copy" fill="#FFFFFF" opacity="0.00999999978">
                <rect id="bg" x="0" y="0" width="35" height="35"></rect>
            </g>
            <path d="M19,14 L20,14 L20,15 L19,15 L19,14 Z M20,20 L19,20 L19,19 L20,19 L20,20 Z M15,15 L14,15 L14,14 L15,14 L15,15 Z M15,20 L14,20 L14,19 L15,19 L15,20 Z M17,9.013 L9.015,17.001 L14.237,22.222 L17,24.985 L24.984,17 L17,9.013 Z" id="resize-border" fill="#FFFFFF"></path>
            <path d="M23.5664,16.9971 L21.0094,14.1881 L21.0094,16.0171 L17.0004,16.0171 L12.9994,16.0171 L12.9994,14.1881 L10.4284,16.9971 L13.0004,19.8051 L12.9994,17.9971 L17.0004,17.9971 L21.0094,17.9971 L21.0084,19.8051 L23.5664,16.9971 Z" id="resize-horizontal" fill="#000000"></path>
            <path d="M17.9873,17 L18.0003,17 L18.0003,12.999 L19.8073,13 L17.0003,10.429 L14.1913,12.999 L16.0003,12.999 L16.0003,17 L16.0083,17 L16.0083,21.002 L14.1803,21.001 L16.9873,23.578 L19.7923,21.002 L17.9873,21.002 L17.9873,17 Z" id="resize-vertical" fill="#000000"></path>
        </g>
    </g>
</svg>

<svg height="35" viewBox="0 0 35 35" width="35" xmlns="http://www.w3.org/2000/svg"><g fill="none" fill-rule="evenodd"><path d="m19 14h1v1h-1zm1 6h-1v-1h1zm-5-5h-1v-1h1zm0 5h-1v-1h1zm2-10.987-7.985 7.988 5.222 5.221 2.763 2.763 7.984-7.985z" fill="#fff"/><g fill="#000"><path d="m23.5664 16.9971-2.557-2.809v1.829h-4.009-4.001v-1.829l-2.571 2.809 2.572 2.808-.001-1.808h4.001 4.009l-.001 1.808z"/><path d="m17.9873 17h.013v-4.001l1.807.001-2.807-2.571-2.809 2.57h1.809v4.001h.008v4.002l-1.828-.001 2.807 2.577 2.805-2.576h-1.805z"/></g></g></svg>
